packages/katcn/src/icons/svg/confirm.svg

<svg width="24" height="24" viewBox="0 0 24 24" fill="none" xmlns="http://www.w3.org/2000/svg">
<path d="M8.69412 10.2028C8.28842 9.80289 7.67986 9.80289 7.27416 10.2028C6.86845 10.6027 6.86845 11.2026 7.27416 11.6025L11.4326 16.0014C11.6355 16.2014 11.9398 16.3014 12.1426 16.3014C12.4469 16.3014 12.7512 16.2014 12.8526 15.9014L22.7923 3.60436C23.0966 3.20445 23.0966 2.50462 22.5895 2.20469C22.2852 1.90476 21.6767 1.90476 21.271 2.40464L19.2424 4.90405C17.4168 3.10448 14.7797 2.00474 12.1426 2.00474C6.56417 2.00474 2 6.50367 2 12.0024C2 17.5011 6.56417 22 12.1426 22C17.721 22 22.2852 17.5011 22.2852 12.0024C22.2852 11.1026 22.1838 10.2028 21.8795 9.30301C21.6767 8.80313 21.1695 8.5032 20.6624 8.60317C20.1553 8.70315 19.851 9.30301 19.9524 9.80289C20.1553 10.5027 20.2567 11.3025 20.2567 12.0024C20.2567 16.4013 16.6054 20.0005 12.1426 20.0005C7.67986 20.0005 4.02852 16.4013 4.02852 12.0024C4.02852 7.60341 7.67986 4.00426 12.1426 4.00426C14.374 4.00426 16.4025 4.90405 18.0253 6.50367L12.1426 13.8019L8.69412 10.2028Z" fill="black"/>
</svg>

<svg xmlns="http://www.w3.org/2000/svg" fill="none" viewBox="0 0 24 24"><path fill="#000" d="M8.694 10.203a.99.99 0 0 0-1.42 0c-.406.4-.406 1 0 1.4L11.433 16c.203.2.507.3.71.3.304 0 .608-.1.71-.4l9.94-12.297c.304-.4.304-1.1-.203-1.4-.305-.3-.913-.3-1.319.2l-2.029 2.5c-1.825-1.8-4.462-2.9-7.1-2.9C6.565 2.005 2 6.505 2 12.003S6.564 22 12.143 22c5.578 0 10.142-4.499 10.142-9.998 0-.9-.101-1.8-.405-2.699-.203-.5-.71-.8-1.218-.7-.507.1-.811.7-.71 1.2.203.7.305 1.5.305 2.2 0 4.398-3.652 7.997-8.114 7.997s-8.114-3.599-8.114-7.998 3.65-7.998 8.114-7.998c2.231 0 4.26.9 5.882 2.5l-5.882 7.298z"/></svg>
